{
  "type": "map",
  "version": "1.10",
  "tiledversion": "1.10.2",
  "orientation": "orthogonal",
  "renderorder": "right-down",
  "width": 36,
  "height": 22,
  "tilewidth": 16,
  "tileheight": 16,
  "infinite": false,
  "layers": [
    {
      "type": "tilelayer",
      "name": "ground",
      "width": 36,
      "height": 22,
      "data": [
        37,
        37,
        37,
        37,
        37,
        37,
        37,
        37,
        37,
        37,
        37,
        37,
        37,
        37,
        37,
        37,
        37,
        37,
        37,
        37,
        37,
        37,
        37,
        37,
        37,
        37,
        37,
        37,
        37,
        37,
        37,
        37,
        37,
        37,
        37,
        37,
        37,
        3,
        2,
        1,
        4,
        3,
        2,
        9,
        4,
        3,
        2,
        1,
        4,
        3,
        2,
        1,
        4,
        3,
        2,
        1,
        4,
        3,
        2,
        1,
        4,
        3,
        2,
        1,
        4,
        3,
        2,
        1,
        4,
        3,
        2,
        37,
        37,
        2,
        1,
        27,
        35,
        33,
        1,
        10,
        3,
        2,
        1,
        4,
        3,
        2,
        1,
        4,
        3,
        2,
        1,
        4,
        3,
        2,
        1,
        4,
        3,
        2,
        1,
        4,
        3,
        2,
        1,
        4,
        3,
        2,
        1,
        37,
        37,
        1,
        4,
        24,
        32,
        30,
        4,
        10,
        2,
        1,
        4,
        3,
        2,
        1,
        4,
        3,
        2,
        1,
        4,
        3,
        2,
        1,
        4,
        3,
        2,
        1,
        4,
        3,
        2,
        1,
        4,
        3,
        2,
        1,
        4,
        37,
        37,
        4,
        3,
        2,
        1,
        4,
        3,
        10,
        1,
        4,
        3,
        2,
        1,
        4,
        3,
        2,
        1,
        4,
        3,
        2,
        1,
        9,
        3,
        2,
        1,
        4,
        3,
        2,
        1,
        4,
        3,
        2,
        1,
        4,
        3,
        37,
        37,
        11,
        19,
        19,
        19,
        19,
        19,
        20,
        19,
        19,
        19,
        19,
        19,
        19,
        19,
        19,
        19,
        19,
        19,
        19,
        19,
        17,
        19,
        11,
        19,
        19,
        19,
        19,
        19,
        19,
        19,
        19,
        19,
        19,
        17,
        37,
        37,
        8,
        16,
        16,
        16,
        16,
        16,
        20,
        16,
        16,
        16,
        20,
        16,
        16,
        16,
        16,
        16,
        16,
        16,
        16,
        16,
        20,
        15,
        16,
        16,
        16,
        16,
        16,
        16,
        16,
        20,
        20,
        16,
        16,
        14,
        37,
        37,
        1,
        4,
        3,
        2,
        1,
        4,
        10,
        2,
        1,
        4,
        10,
        2,
        1,
        4,
        3,
        2,
        1,
        4,
        3,
        2,
        10,
        4,
        3,
        2,
        1,
        4,
        3,
        2,
        1,
        12,
        18,
        2,
        1,
        4,
        37,
        37,
        4,
        3,
        2,
        1,
        4,
        3,
        10,
        1,
        4,
        3,
        10,
        1,
        4,
        3,
        2,
        1,
        4,
        3,
        2,
        1,
        10,
        3,
        2,
        1,
        4,
        3,
        2,
        1,
        4,
        12,
        18,
        1,
        4,
        3,
        37,
        37,
        3,
        2,
        1,
        4,
        3,
        2,
        6,
        4,
        3,
        2,
        10,
        4,
        3,
        2,
        1,
        4,
        3,
        2,
        1,
        4,
        10,
        2,
        1,
        4,
        3,
        2,
        1,
        4,
        3,
        12,
        18,
        4,
        3,
        2,
        37,
        37,
        2,
        1,
        4,
        3,
        2,
        1,
        4,
        3,
        2,
        1,
        10,
        3,
        2,
        1,
        4,
        3,
        2,
        1,
        4,
        3,
        10,
        1,
        4,
        3,
        2,
        1,
        4,
        3,
        2,
        12,
        18,
        3,
        2,
        1,
        37,
        37,
        1,
        4,
        3,
        2,
        1,
        4,
        3,
        2,
        1,
        4,
        10,
        2,
        1,
        27,
        35,
        35,
        33,
        4,
        3,
        2,
        10,
        4,
        3,
        2,
        1,
        4,
        3,
        2,
        1,
        12,
        18,
        2,
        1,
        4,
        37,
        37,
        4,
        3,
        2,
        1,
        4,
        3,
        2,
        1,
        4,
        3,
        10,
        1,
        4,
        28,
        36,
        36,
        34,
        3,
        2,
        1,
        10,
        3,
        2,
        1,
        4,
        3,
        2,
        1,
        4,
        12,
        18,
        1,
        4,
        3,
        37,
        37,
        3,
        2,
        1,
        4,
        3,
        2,
        1,
        4,
        3,
        2,
        10,
        4,
        3,
        24,
        32,
        32,
        36,
        33,
        1,
        4,
        10,
        2,
        1,
        4,
        3,
        2,
        1,
        4,
        3,
        8,
        18,
        4,
        3,
        2,
        37,
        37,
        2,
        1,
        4,
        3,
        2,
        1,
        9,
        3,
        2,
        1,
        10,
        3,
        2,
        1,
        4,
        3,
        28,
        34,
        4,
        3,
        10,
        1,
        4,
        3,
        2,
        1,
        4,
        3,
        2,
        1,
        10,
        3,
        2,
        1,
        37,
        37,
        1,
        4,
        3,
        2,
        1,
        4,
        12,
        19,
        19,
        19,
        20,
        19,
        19,
        19,
        19,
        17,
        28,
        34,
        11,
        19,
        20,
        19,
        17,
        2,
        1,
        4,
        3,
        2,
        11,
        19,
        18,
        2,
        1,
        4,
        37,
        37,
        4,
        3,
        2,
        1,
        4,
        3,
        12,
        16,
        16,
        16,
        20,
        20,
        20,
        20,
        20,
        18,
        24,
        30,
        12,
        20,
        20,
        16,
        16,
        15,
        13,
        3,
        7,
        15,
        16,
        20,
        18,
        1,
        4,
        3,
        37,
        37,
        3,
        2,
        1,
        4,
        3,
        2,
        10,
        4,
        3,
        2,
        12,
        16,
        16,
        16,
        16,
        16,
        15,
        15,
        16,
        16,
        18,
        2,
        1,
        4,
        3,
        9,
        1,
        4,
        3,
        12,
        18,
        4,
        3,
        2,
        37,
        37,
        2,
        1,
        4,
        3,
        2,
        1,
        12,
        15,
        15,
        15,
        14,
        3,
        2,
        1,
        4,
        3,
        2,
        1,
        4,
        3,
        10,
        1,
        4,
        3,
        2,
        10,
        4,
        3,
        2,
        8,
        18,
        3,
        2,
        1,
        37,
        37,
        1,
        4,
        3,
        2,
        1,
        4,
        10,
        2,
        1,
        4,
        3,
        2,
        1,
        4,
        3,
        2,
        1,
        4,
        3,
        2,
        12,
        19,
        19,
        19,
        19,
        20,
        19,
        17,
        1,
        4,
        10,
        2,
        1,
        4,
        37,
        37,
        4,
        3,
        2,
        1,
        4,
        3,
        6,
        1,
        4,
        3,
        2,
        1,
        4,
        3,
        2,
        1,
        4,
        3,
        2,
        1,
        8,
        16,
        16,
        16,
        16,
        16,
        16,
        16,
        15,
        15,
        14,
        1,
        4,
        3,
        37,
        37,
        37,
        37,
        37,
        37,
        37,
        37,
        37,
        37,
        37,
        37,
        37,
        37,
        37,
        37,
        37,
        37,
        37,
        37,
        37,
        37,
        37,
        37,
        37,
        37,
        37,
        37,
        37,
        37,
        37,
        37,
        37,
        37,
        37,
        37,
        37
      ],
      "opacity": 1,
      "visible": true,
      "x": 0,
      "y": 0
    },
    {
      "type": "tilelayer",
      "name": "decor",
      "width": 36,
      "height": 22,
      "data": [
        0,
        0,
        0,
        0,
        0,
        0,
        0,
        0,
        0,
        0,
        0,
        0,
        0,
        0,
        0,
        0,
        0,
        0,
        0,
        0,
        0,
        0,
        0,
        0,
        0,
        0,
        0,
        0,
        0,
        0,
        0,
        0,
        0,
        0,
        0,
        0,
        0,
        0,
        0,
        0,
        0,
        0,
        0,
        0,
        41,
        41,
        41,
        41,
        0,
        0,
        0,
        0,
        0,
        0,
        0,
        0,
        0,
        0,
        0,
        0,
        0,
        0,
        0,
        0,
        0,
        0,
        0,
        0,
        0,
        0,
        0,
        0,
        48,
        49,
        0,
        0,
        0,
        0,
        0,
        0,
        41,
        41,
        41,
        41,
        48,
        49,
        0,
        0,
        48,
        49,
        38,
        0,
        0,
        0,
        0,
        0,
        0,
        0,
        0,
        0,
        48,
        49,
        0,
        0,
        0,
        48,
        49,
        0,
        0,
        0,
        0,
        0,
        0,
        0,
        0,
        0,
        43,
        0,
        0,
        39,
        0,
        0,
        0,
        0,
        0,
        0,
        38,
        0,
        77,
        73,
        72,
        73,
        78,
        0,
        0,
        0,
        0,
        0,
        0,
        0,
        0,
        0,
        0,
        0,
        0,
        0,
        39,
        0,
        0,
        0,
        0,
        0,
        0,
        0,
        0,
        0,
        0,
        0,
        0,
        0,
        0,
        0,
        0,
        0,
        77,
        73,
        75,
        73,
        78,
        0,
        0,
        0,
        0,
        0,
        0,
        0,
        0,
        0,
        0,
        0,
        0,
        0,
        0,
        0,
        0,
        0,
        0,
        0,
        0,
        0,
        0,
        0,
        0,
        0,
        0,
        0,
        0,
        0,
        0,
        0,
        79,
        79,
        76,
        79,
        79,
        0,
        0,
        0,
        0,
        0,
        0,
        0,
        0,
        0,
        0,
        0,
        0,
        0,
        0,
        0,
        0,
        0,
        0,
        0,
        0,
        0,
        0,
        0,
        0,
        0,
        0,
        0,
        0,
        0,
        0,
        0,
        43,
        0,
        0,
        0,
        0,
        0,
        0,
        0,
        0,
        0,
        0,
        0,
        0,
        0,
        0,
        0,
        0,
        0,
        0,
        38,
        38,
        0,
        0,
        0,
        0,
        0,
        0,
        0,
        0,
        39,
        0,
        0,
        0,
        0,
        0,
        0,
        0,
        0,
        0,
        0,
        0,
        0,
        0,
        0,
        0,
        0,
        0,
        0,
        0,
        0,
        0,
        0,
        0,
        0,
        0,
        38,
        0,
        0,
        0,
        0,
        0,
        0,
        0,
        0,
        38,
        38,
        0,
        0,
        0,
        0,
        0,
        0,
        0,
        0,
        0,
        0,
        41,
        41,
        41,
        0,
        0,
        0,
        0,
        0,
        0,
        0,
        0,
        0,
        0,
        0,
        0,
        0,
        39,
        0,
        0,
        0,
        0,
        0,
        0,
        0,
        0,
        38,
        0,
        0,
        0,
        0,
        39,
        0,
        0,
        0,
        0,
        38,
        41,
        41,
        41,
        48,
        49,
        0,
        0,
        0,
        0,
        0,
        0,
        0,
        0,
        0,
        0,
        0,
        0,
        0,
        0,
        0,
        0,
        0,
        0,
        0,
        48,
        49,
        0,
        0,
        0,
        0,
        0,
        0,
        0,
        0,
        0,
        38,
        41,
        41,
        41,
        0,
        0,
        0,
        0,
        0,
        48,
        49,
        0,
        0,
        0,
        0,
        0,
        0,
        0,
        0,
        0,
        0,
        0,
        0,
        0,
        0,
        0,
        0,
        0,
        0,
        0,
        0,
        0,
        0,
        0,
        0,
        0,
        39,
        0,
        0,
        0,
        0,
        0,
        0,
        0,
        0,
        0,
        0,
        0,
        0,
        48,
        49,
        0,
        0,
        0,
        0,
        77,
        73,
        72,
        73,
        78,
        0,
        0,
        0,
        0,
        0,
        0,
        0,
        48,
        49,
        0,
        0,
        0,
        0,
        0,
        0,
        0,
        0,
        0,
        0,
        0,
        0,
        0,
        0,
        0,
        0,
        0,
        0,
        48,
        49,
        0,
        0,
        77,
        73,
        75,
        73,
        78,
        0,
        0,
        0,
        0,
        0,
        0,
        0,
        0,
        0,
        0,
        0,
        0,
        0,
        0,
        0,
        0,
        0,
        0,
        0,
        0,
        0,
        0,
        48,
        49,
        0,
        0,
        0,
        0,
        38,
        38,
        0,
        79,
        79,
        76,
        79,
        79,
        0,
        0,
        0,
        0,
        0,
        0,
        0,
        0,
        0,
        0,
        0,
        0,
        0,
        77,
        73,
        72,
        73,
        78,
        48,
        49,
        0,
        0,
        0,
        0,
        0,
        0,
        0,
        0,
        38,
        0,
        0,
        0,
        0,
        0,
        0,
        0,
        0,
        0,
        0,
        0,
        0,
        0,
        0,
        0,
        0,
        0,
        0,
        0,
        0,
        77,
        73,
        75,
        73,
        78,
        0,
        0,
        0,
        0,
        0,
        0,
        0,
        0,
        0,
        0,
        0,
        0,
        0,
        0,
        0,
        0,
        0,
        0,
        0,
        0,
        0,
        0,
        0,
        0,
        0,
        0,
        0,
        0,
        0,
        0,
        0,
        79,
        79,
        76,
        79,
        79,
        0,
        0,
        0,
        38,
        38,
        0,
        0,
        0,
        0,
        0,
        0,
        0,
        0,
        0,
        0,
        0,
        0,
        0,
        0,
        0,
        0,
        0,
        0,
        0,
        0,
        0,
        0,
        0,
        0,
        0,
        38,
        38,
        0,
        0,
        0,
        0,
        0,
        0,
        0,
        48,
        49,
        0,
        0,
        0,
        0,
        0,
        62,
        63,
        64,
        0,
        0,
        0,
        0,
        0,
        0,
        0,
        0,
        0,
        0,
        0,
        0,
        0,
        0,
        0,
        0,
        0,
        38,
        0,
        0,
        0,
        0,
        39,
        0,
        0,
        0,
        0,
        0,
        0,
        0,
        48,
        49,
        0,
        0,
        0,
        0,
        0,
        0,
        0,
        0,
        39,
        0,
        0,
        0,
        0,
        0,
        0,
        0,
        0,
        0,
        0,
        0,
        0,
        0,
        0,
        0,
        0,
        0,
        0,
        43,
        49,
        0,
        0,
        0,
        0,
        0,
        0,
        0,
        42,
        42,
        42,
        42,
        0,
        0,
        0,
        0,
        0,
        42,
        42,
        49,
        0,
        0,
        0,
        0,
        0,
        0,
        0,
        0,
        0,
        0,
        0,
        0,
        0,
        0,
        0,
        0,
        0,
        0,
        0,
        48,
        49,
        0,
        0,
        0,
        0,
        0,
        0,
        0,
        0,
        0,
        0,
        0,
        0,
        0,
        0,
        0,
        0,
        0,
        0,
        0,
        0,
        0,
        0,
        0,
        0,
        0,
        0,
        0,
        0,
        0,
        0,
        0,
        0,
        0,
        0,
        0,
        0,
        0
      ],
      "opacity": 1,
      "visible": true,
      "x": 0,
      "y": 0
    },
    {
      "type": "tilelayer",
      "name": "above",
      "width": 36,
      "height": 22,
      "data": [
        44,
        45,
        0,
        0,
        0,
        0,
        0,
        0,
        0,
        0,
        0,
        0,
        44,
        45,
        0,
        0,
        44,
        45,
        0,
        0,
        0,
        0,
        0,
        0,
        0,
        0,
        0,
        0,
        44,
        45,
        0,
        0,
        0,
        44,
        45,
        0,
        46,
        47,
        0,
        0,
        0,
        0,
        0,
        0,
        0,
        0,
        0,
        0,
        46,
        47,
        0,
        0,
        46,
        47,
        0,
        0,
        66,
        68,
        68,
        68,
        70,
        0,
        0,
        0,
        46,
        47,
        0,
        0,
        0,
        46,
        47,
        0,
        0,
        0,
        0,
        0,
        0,
        0,
        0,
        0,
        0,
        0,
        0,
        0,
        0,
        0,
        0,
        0,
        0,
        0,
        0,
        0,
        67,
        69,
        69,
        69,
        71,
        0,
        0,
        0,
        0,
        0,
        0,
        0,
        0,
        0,
        0,
        0,
        0,
        0,
        0,
        0,
        0,
        0,
        0,
        0,
        0,
        0,
        0,
        0,
        0,
        0,
        0,
        0,
        0,
        0,
        0,
        0,
        0,
        0,
        0,
        0,
        0,
        0,
        0,
        0,
        0,
        0,
        0,
        0,
        0,
        0,
        0,
        0,
        0,
        0,
        0,
        0,
        0,
        0,
        0,
        0,
        0,
        0,
        0,
        0,
        0,
        0,
        0,
        0,
        0,
        0,
        0,
        0,
        0,
        0,
        0,
        0,
        0,
        0,
        0,
        0,
        0,
        0,
        0,
        0,
        0,
        0,
        0,
        0,
        0,
        0,
        0,
        0,
        0,
        0,
        0,
        0,
        0,
        0,
        0,
        0,
        0,
        0,
        0,
        0,
        0,
        0,
        0,
        0,
        0,
        0,
        0,
        0,
        0,
        0,
        0,
        0,
        0,
        0,
        0,
        0,
        0,
        0,
        0,
        0,
        0,
        0,
        0,
        0,
        0,
        0,
        0,
        0,
        0,
        0,
        0,
        0,
        0,
        0,
        0,
        0,
        0,
        0,
        0,
        0,
        0,
        0,
        0,
        0,
        0,
        0,
        0,
        0,
        44,
        45,
        0,
        0,
        0,
        0,
        0,
        0,
        0,
        0,
        0,
        0,
        0,
        0,
        0,
        0,
        0,
        0,
        0,
        0,
        0,
        0,
        0,
        0,
        0,
        0,
        0,
        0,
        0,
        0,
        0,
        0,
        0,
        0,
        0,
        44,
        45,
        47,
        0,
        0,
        0,
        0,
        0,
        0,
        0,
        0,
        0,
        0,
        0,
        0,
        0,
        0,
        0,
        0,
        0,
        0,
        44,
        45,
        0,
        0,
        0,
        0,
        0,
        0,
        0,
        0,
        0,
        0,
        0,
        0,
        0,
        46,
        47,
        0,
        0,
        0,
        44,
        45,
        0,
        0,
        0,
        0,
        0,
        0,
        0,
        0,
        0,
        0,
        0,
        0,
        0,
        0,
        46,
        47,
        0,
        0,
        0,
        0,
        0,
        0,
        0,
        0,
        0,
        0,
        0,
        0,
        0,
        0,
        0,
        0,
        0,
        0,
        46,
        47,
        0,
        0,
        44,
        45,
        0,
        0,
        0,
        0,
        66,
        68,
        68,
        68,
        70,
        0,
        0,
        0,
        0,
        0,
        0,
        0,
        44,
        45,
        0,
        0,
        0,
        0,
        0,
        0,
        0,
        0,
        0,
        0,
        0,
        0,
        0,
        0,
        0,
        0,
        46,
        47,
        44,
        45,
        0,
        0,
        67,
        69,
        69,
        69,
        71,
        0,
        0,
        0,
        0,
        0,
        0,
        0,
        46,
        47,
        0,
        0,
        0,
        0,
        0,
        0,
        0,
        0,
        0,
        0,
        0,
        0,
        0,
        44,
        45,
        0,
        0,
        0,
        46,
        47,
        0,
        0,
        0,
        0,
        0,
        0,
        0,
        0,
        0,
        0,
        0,
        0,
        0,
        0,
        0,
        0,
        0,
        0,
        0,
        0,
        66,
        68,
        68,
        68,
        70,
        44,
        45,
        0,
        0,
        46,
        47,
        0,
        0,
        0,
        0,
        0,
        0,
        0,
        0,
        0,
        0,
        0,
        0,
        0,
        0,
        0,
        0,
        0,
        0,
        0,
        0,
        0,
        0,
        0,
        0,
        0,
        67,
        69,
        69,
        69,
        71,
        46,
        47,
        0,
        0,
        0,
        0,
        0,
        0,
        0,
        0,
        0,
        0,
        0,
        0,
        0,
        0,
        0,
        0,
        0,
        0,
        0,
        0,
        0,
        0,
        0,
        0,
        0,
        0,
        0,
        0,
        0,
        0,
        0,
        0,
        0,
        0,
        0,
        0,
        0,
        0,
        0,
        0,
        0,
        0,
        0,
        0,
        50,
        51,
        52,
        53,
        0,
        0,
        0,
        0,
        0,
        0,
        0,
        0,
        0,
        0,
        0,
        0,
        0,
        0,
        0,
        0,
        0,
        0,
        0,
        0,
        0,
        0,
        0,
        0,
        0,
        44,
        45,
        0,
        0,
        0,
        0,
        0,
        54,
        55,
        56,
        57,
        0,
        0,
        0,
        0,
        0,
        0,
        0,
        0,
        0,
        0,
        0,
        0,
        0,
        0,
        0,
        0,
        0,
        0,
        0,
        0,
        0,
        0,
        0,
        0,
        0,
        46,
        47,
        0,
        0,
        44,
        45,
        0,
        58,
        59,
        60,
        61,
        0,
        0,
        0,
        0,
        0,
        0,
        0,
        0,
        0,
        0,
        0,
        0,
        0,
        0,
        0,
        0,
        0,
        0,
        0,
        0,
        0,
        0,
        44,
        45,
        0,
        0,
        0,
        0,
        0,
        46,
        47,
        44,
        45,
        0,
        0,
        0,
        0,
        0,
        0,
        0,
        0,
        44,
        45,
        0,
        0,
        0,
        0,
        0,
        0,
        0,
        0,
        0,
        0,
        0,
        0,
        0,
        0,
        0,
        46,
        47,
        0,
        0,
        44,
        45,
        0,
        0,
        0,
        46,
        47,
        0,
        0,
        0,
        0,
        0,
        0,
        0,
        0,
        46,
        47,
        0,
        0,
        0,
        0,
        0,
        0,
        0,
        0,
        0,
        0,
        0,
        0,
        0,
        0,
        0,
        0,
        0,
        0,
        0,
        46,
        47,
        0,
        0,
        0,
        0,
        0,
        0,
        0,
        0,
        0,
        0,
        0,
        0,
        0,
        0,
        0,
        0,
        0,
        0,
        0,
        0,
        0,
        0,
        0,
        0,
        0,
        0,
        0,
        0,
        0,
        0,
        0,
        0,
        0,
        0,
        0,
        0,
        0,
        0,
        0,
        0,
        0,
        0,
        0,
        0,
        0,
        0,
        0,
        0,
        0,
        0,
        0,
        0,
        0,
        0,
        0,
        0,
        0,
        0,
        0,
        0,
        0,
        0,
        0,
        0,
        0,
        0,
        0,
        0,
        0,
        0,
        0,
        0,
        0
      ],
      "opacity": 1,
      "visible": true,
      "x": 0,
      "y": 0
    },
    {
      "type": "tilelayer",
      "name": "collision",
      "width": 36,
      "height": 22,
      "data": [
        1,
        1,
        1,
        1,
        1,
        1,
        1,
        1,
        1,
        1,
        1,
        1,
        1,
        1,
        1,
        1,
        1,
        1,
        1,
        1,
        1,
        1,
        1,
        1,
        1,
        1,
        1,
        1,
        1,
        1,
        1,
        1,
        1,
        1,
        1,
        1,
        1,
        0,
        0,
        0,
        0,
        0,
        0,
        0,
        4,
        4,
        4,
        4,
        0,
        0,
        0,
        0,
        0,
        0,
        0,
        0,
        1,
        1,
        1,
        1,
        1,
        0,
        0,
        0,
        0,
        0,
        0,
        0,
        0,
        0,
        0,
        1,
        1,
        1,
        0,
        2,
        2,
        2,
        0,
        0,
        4,
        4,
        4,
        4,
        1,
        1,
        0,
        0,
        1,
        1,
        0,
        0,
        1,
        1,
        1,
        1,
        1,
        0,
        0,
        0,
        1,
        1,
        0,
        0,
        0,
        1,
        1,
        1,
        1,
        0,
        0,
        2,
        2,
        2,
        0,
        0,
        1,
        0,
        0,
        0,
        0,
        0,
        0,
        0,
        0,
        0,
        0,
        0,
        1,
        1,
        1,
        1,
        1,
        0,
        0,
        0,
        0,
        0,
        0,
        0,
        0,
        0,
        0,
        1,
        1,
        0,
        0,
        0,
        0,
        0,
        0,
        0,
        0,
        0,
        0,
        0,
        0,
        0,
        0,
        0,
        0,
        0,
        0,
        0,
        1,
        1,
        1,
        1,
        1,
        0,
        0,
        0,
        0,
        0,
        0,
        0,
        0,
        0,
        0,
        1,
        1,
        0,
        0,
        0,
        0,
        0,
        0,
        0,
        0,
        0,
        0,
        0,
        0,
        0,
        0,
        0,
        0,
        0,
        0,
        0,
        0,
        0,
        1,
        0,
        0,
        0,
        0,
        0,
        0,
        0,
        0,
        0,
        0,
        0,
        0,
        1,
        1,
        0,
        0,
        0,
        0,
        0,
        0,
        0,
        0,
        0,
        0,
        0,
        0,
        0,
        0,
        0,
        0,
        0,
        0,
        0,
        1,
        0,
        0,
        0,
        0,
        0,
        0,
        0,
        0,
        0,
        0,
        0,
        0,
        0,
        0,
        1,
        1,
        0,
        0,
        0,
        0,
        0,
        0,
        0,
        0,
        0,
        0,
        0,
        0,
        0,
        0,
        0,
        0,
        0,
        0,
        0,
        0,
        0,
        0,
        0,
        0,
        0,
        0,
        0,
        0,
        0,
        0,
        0,
        0,
        1,
        0,
        1,
        1,
        0,
        0,
        0,
        0,
        0,
        0,
        0,
        0,
        0,
        0,
        0,
        0,
        0,
        0,
        0,
        0,
        0,
        0,
        0,
        0,
        0,
        0,
        0,
        4,
        4,
        4,
        0,
        1,
        1,
        0,
        0,
        0,
        0,
        0,
        1,
        1,
        0,
        0,
        0,
        0,
        0,
        0,
        0,
        0,
        0,
        0,
        0,
        0,
        0,
        0,
        0,
        0,
        0,
        0,
        0,
        0,
        0,
        0,
        0,
        4,
        4,
        4,
        1,
        1,
        0,
        0,
        0,
        0,
        0,
        0,
        1,
        1,
        0,
        0,
        0,
        0,
        0,
        1,
        1,
        1,
        1,
        1,
        0,
        1,
        1,
        0,
        0,
        0,
        0,
        0,
        0,
        0,
        0,
        0,
        0,
        4,
        4,
        4,
        0,
        0,
        0,
        0,
        0,
        1,
        1,
        0,
        1,
        1,
        0,
        0,
        0,
        0,
        0,
        1,
        1,
        1,
        1,
        1,
        0,
        0,
        0,
        2,
        2,
        2,
        2,
        0,
        0,
        0,
        0,
        0,
        0,
        0,
        0,
        0,
        0,
        0,
        0,
        0,
        0,
        0,
        0,
        0,
        1,
        1,
        1,
        0,
        0,
        0,
        0,
        1,
        1,
        1,
        1,
        1,
        0,
        0,
        0,
        2,
        2,
        2,
        2,
        1,
        1,
        0,
        0,
        0,
        0,
        1,
        1,
        1,
        1,
        1,
        0,
        0,
        0,
        0,
        0,
        0,
        1,
        1,
        0,
        1,
        1,
        0,
        0,
        1,
        1,
        1,
        1,
        1,
        0,
        0,
        0,
        2,
        2,
        2,
        2,
        2,
        0,
        0,
        0,
        0,
        0,
        1,
        1,
        1,
        1,
        1,
        0,
        0,
        0,
        0,
        1,
        1,
        1,
        1,
        0,
        0,
        0,
        0,
        0,
        0,
        0,
        1,
        0,
        0,
        0,
        0,
        0,
        0,
        0,
        0,
        2,
        2,
        0,
        0,
        0,
        0,
        0,
        1,
        1,
        1,
        1,
        1,
        1,
        1,
        0,
        0,
        0,
        0,
        1,
        1,
        0,
        0,
        0,
        0,
        0,
        0,
        0,
        0,
        0,
        0,
        0,
        0,
        0,
        0,
        0,
        0,
        2,
        2,
        0,
        0,
        0,
        0,
        0,
        1,
        1,
        1,
        1,
        1,
        0,
        0,
        0,
        0,
        0,
        0,
        1,
        1,
        0,
        0,
        0,
        0,
        0,
        0,
        0,
        0,
        0,
        0,
        0,
        0,
        0,
        0,
        0,
        0,
        2,
        2,
        0,
        0,
        0,
        0,
        0,
        0,
        0,
        1,
        0,
        0,
        0,
        0,
        0,
        0,
        0,
        0,
        1,
        1,
        0,
        0,
        0,
        0,
        0,
        0,
        0,
        0,
        0,
        0,
        0,
        0,
        0,
        0,
        0,
        0,
        0,
        0,
        0,
        0,
        0,
        0,
        0,
        0,
        0,
        0,
        0,
        0,
        0,
        0,
        0,
        1,
        1,
        0,
        1,
        1,
        0,
        0,
        0,
        1,
        1,
        1,
        0,
        0,
        0,
        0,
        0,
        0,
        0,
        0,
        0,
        0,
        0,
        0,
        0,
        0,
        0,
        0,
        0,
        0,
        0,
        0,
        0,
        0,
        0,
        0,
        0,
        0,
        0,
        0,
        1,
        1,
        1,
        0,
        0,
        0,
        0,
        0,
        0,
        0,
        0,
        0,
        0,
        0,
        0,
        0,
        0,
        0,
        0,
        0,
        0,
        0,
        0,
        0,
        0,
        0,
        0,
        0,
        0,
        0,
        1,
        1,
        0,
        0,
        0,
        0,
        1,
        1,
        1,
        1,
        1,
        1,
        1,
        0,
        0,
        0,
        0,
        0,
        1,
        1,
        1,
        0,
        0,
        0,
        0,
        0,
        0,
        0,
        0,
        0,
        0,
        0,
        0,
        0,
        0,
        0,
        0,
        0,
        0,
        0,
        1,
        1,
        1,
        1,
        1,
        1,
        1,
        1,
        1,
        1,
        1,
        1,
        1,
        1,
        1,
        1,
        1,
        1,
        1,
        1,
        1,
        1,
        1,
        1,
        1,
        1,
        1,
        1,
        1,
        1,
        1,
        1,
        1,
        1,
        1,
        1,
        1,
        1,
        1
      ],
      "opacity": 1,
      "visible": true,
      "x": 0,
      "y": 0
    },
    {
      "type": "objectgroup",
      "name": "objects",
      "objects": [
        {
          "id": 1,
          "name": "town-spawn",
          "class": "spawn",
          "x": 112,
          "y": 80,
          "properties": [
            {
              "name": "facing",
              "value": "right"
            }
          ]
        },
        {
          "id": 2,
          "name": "route-guide",
          "class": "npc",
          "x": 144,
          "y": 80,
          "properties": [
            {
              "name": "facing",
              "value": "left"
            },
            {
              "name": "route",
              "value": "{\"mode\": \"pingpong\", \"points\": [{\"x\": 9, \"y\": 5, \"waitTicks\": 20}, {\"x\": 10, \"y\": 5, \"waitTicks\": 20}, {\"x\": 10, \"y\": 6, \"waitTicks\": 20}]}"
            }
          ]
        },
        {
          "id": 3,
          "name": "route-neighbor",
          "class": "npc",
          "x": 368,
          "y": 288,
          "properties": [
            {
              "name": "facing",
              "value": "down"
            },
            {
              "name": "route",
              "value": "{\"mode\": \"pingpong\", \"points\": [{\"x\": 23, \"y\": 18, \"waitTicks\": 24}, {\"x\": 24, \"y\": 18, \"waitTicks\": 24}, {\"x\": 24, \"y\": 19, \"waitTicks\": 24}]}"
            }
          ]
        },
        {
          "id": 4,
          "name": "challenger",
          "class": "npc",
          "x": 288,
          "y": 112,
          "properties": [
            {
              "name": "facing",
              "value": "left"
            },
            {
              "name": "route",
              "value": "{\"mode\": \"pingpong\", \"points\": [{\"x\": 18, \"y\": 7, \"waitTicks\": 0}]}"
            }
          ]
        },
        {
          "id": 5,
          "name": "home-front",
          "class": "door",
          "x": 352,
          "y": 80,
          "properties": [
            {
              "name": "targetMapId",
              "value": "m1-interior-test"
            },
            {
              "name": "targetDoorId",
              "value": "interior-exit"
            },
            {
              "name": "arrivalX",
              "value": 7
            },
            {
              "name": "arrivalY",
              "value": 7
            },
            {
              "name": "arrivalFacing",
              "value": "up"
            }
          ]
        },
        {
          "id": 6,
          "name": "workshop-front",
          "class": "door",
          "x": 128,
          "y": 224,
          "properties": [
            {
              "name": "targetMapId",
              "value": "m1-workshop"
            },
            {
              "name": "targetDoorId",
              "value": "interior-exit"
            },
            {
              "name": "arrivalX",
              "value": 7
            },
            {
              "name": "arrivalY",
              "value": 7
            },
            {
              "name": "arrivalFacing",
              "value": "up"
            }
          ]
        },
        {
          "id": 7,
          "name": "cottage-front",
          "class": "door",
          "x": 416,
          "y": 256,
          "properties": [
            {
              "name": "targetMapId",
              "value": "m1-cottage"
            },
            {
              "name": "targetDoorId",
              "value": "interior-exit"
            },
            {
              "name": "arrivalX",
              "value": 7
            },
            {
              "name": "arrivalY",
              "value": 7
            },
            {
              "name": "arrivalFacing",
              "value": "up"
            }
          ]
        },
        {
          "id": 8,
          "name": "town-sign",
          "class": "sign",
          "x": 128,
          "y": 48,
          "properties": []
        },
        {
          "id": 9,
          "name": "route-sign",
          "class": "sign",
          "x": 320,
          "y": 96,
          "properties": []
        },
        {
          "id": 10,
          "name": "forest-sign",
          "class": "sign",
          "x": 464,
          "y": 304,
          "properties": []
        },
        {
          "id": 11,
          "name": "grand-tree-note",
          "class": "object",
          "x": 96,
          "y": 288,
          "properties": []
        },
        {
          "id": 12,
          "name": "forest-cache",
          "class": "object",
          "x": 528,
          "y": 112,
          "properties": []
        },
        {
          "id": 13,
          "name": "west-room",
          "class": "room",
          "x": 0,
          "y": 0,
          "properties": [],
          "width": 240,
          "height": 352
        },
        {
          "id": 14,
          "name": "east-room",
          "class": "room",
          "x": 240,
          "y": 0,
          "properties": [],
          "width": 336,
          "height": 352
        }
      ]
    }
  ],
  "tilesets": [
    {
      "firstgid": 1,
      "name": "pokefolio-town",
      "tilewidth": 16,
      "tileheight": 16,
      "tilecount": 87,
      "columns": 16,
      "image": "../../public/assets/world/town-tiles.fb0232fefa6b.png",
      "imagewidth": 256,
      "imageheight": 96
    }
  ],
  "properties": [
    {
      "name": "cameraMode",
      "value": "follow"
    },
    {
      "name": "p9AuthoredMap",
      "value": true
    },
    {
      "name": "landmarks",
      "value": "[{\"id\": \"town-center\", \"kind\": \"town\", \"x\": 7, \"y\": 5, \"width\": 4, \"height\": 3}, {\"id\": \"home\", \"kind\": \"home\", \"x\": 20, \"y\": 1, \"width\": 5, \"height\": 5}, {\"id\": \"workshop\", \"kind\": \"building\", \"x\": 6, \"y\": 10, \"width\": 5, \"height\": 5}, {\"id\": \"route-cottage\", \"kind\": \"building\", \"x\": 24, \"y\": 12, \"width\": 5, \"height\": 5}, {\"id\": \"town-pond\", \"kind\": \"water\", \"x\": 3, \"y\": 2, \"width\": 3, \"height\": 2}, {\"id\": \"village-stream\", \"kind\": \"water\", \"x\": 14, \"y\": 11, \"width\": 5, \"height\": 6}, {\"id\": \"grass-patch\", \"kind\": \"grass\", \"x\": 24, \"y\": 8, \"width\": 3, \"height\": 3}, {\"id\": \"side-forest\", \"kind\": \"forest\", \"x\": 29, \"y\": 7, \"width\": 6, \"height\": 14}, {\"id\": \"grand-tree\", \"kind\": \"grand-tree\", \"x\": 3, \"y\": 15, \"width\": 4, \"height\": 4}, {\"id\": \"town-sign\", \"kind\": \"sign\", \"x\": 8, \"y\": 3, \"width\": 1, \"height\": 1}, {\"id\": \"route-sign\", \"kind\": \"sign\", \"x\": 20, \"y\": 6, \"width\": 1, \"height\": 1}, {\"id\": \"forest-sign\", \"kind\": \"sign\", \"x\": 29, \"y\": 19, \"width\": 1, \"height\": 1}, {\"id\": \"grand-tree-note\", \"kind\": \"secret\", \"x\": 6, \"y\": 18, \"width\": 1, \"height\": 1}, {\"id\": \"forest-cache\", \"kind\": \"secret\", \"x\": 33, \"y\": 7, \"width\": 1, \"height\": 1}]"
    }
  ]
}
