{
  "type": "map",
  "version": "1.10",
  "tiledversion": "1.10.2",
  "orientation": "orthogonal",
  "renderorder": "right-down",
  "width": 15,
  "height": 10,
  "tilewidth": 16,
  "tileheight": 16,
  "infinite": false,
  "layers": [
    {
      "id": 1,
      "name": "ground",
      "type": "tilelayer",
      "width": 15,
      "height": 10,
      "data": [
        81,
        81,
        81,
        81,
        81,
        81,
        81,
        81,
        81,
        81,
        81,
        81,
        81,
        81,
        81,
        81,
        80,
        80,
        80,
        80,
        80,
        80,
        80,
        80,
        80,
        80,
        80,
        80,
        80,
        81,
        81,
        80,
        80,
        80,
        80,
        80,
        80,
        80,
        80,
        80,
        80,
        80,
        80,
        80,
        81,
        81,
        80,
        80,
        80,
        80,
        80,
        80,
        80,
        80,
        80,
        80,
        80,
        80,
        80,
        81,
        81,
        80,
        80,
        80,
        80,
        80,
        80,
        80,
        80,
        80,
        80,
        80,
        80,
        80,
        81,
        81,
        80,
        80,
        80,
        80,
        80,
        80,
        80,
        80,
        80,
        80,
        80,
        80,
        80,
        81,
        81,
        80,
        80,
        80,
        80,
        80,
        80,
        80,
        80,
        80,
        80,
        80,
        80,
        80,
        81,
        81,
        80,
        80,
        80,
        80,
        80,
        80,
        80,
        80,
        80,
        80,
        80,
        80,
        80,
        81,
        81,
        80,
        80,
        80,
        80,
        80,
        80,
        81,
        80,
        80,
        80,
        80,
        80,
        80,
        81,
        81,
        81,
        81,
        81,
        81,
        81,
        81,
        81,
        81,
        81,
        81,
        81,
        81,
        81,
        81
      ],
      "opacity": 1,
      "visible": true,
      "x": 0,
      "y": 0
    },
    {
      "id": 2,
      "name": "collision",
      "type": "tilelayer",
      "width": 15,
      "height": 10,
      "data": [
        1,
        1,
        1,
        1,
        1,
        1,
        1,
        1,
        1,
        1,
        1,
        1,
        1,
        1,
        1,
        1,
        0,
        0,
        0,
        0,
        0,
        0,
        0,
        0,
        0,
        0,
        0,
        0,
        0,
        1,
        1,
        0,
        0,
        0,
        0,
        0,
        0,
        0,
        0,
        0,
        0,
        0,
        0,
        0,
        1,
        1,
        0,
        0,
        1,
        1,
        1,
        1,
        1,
        1,
        1,
        1,
        1,
        0,
        0,
        1,
        1,
        0,
        0,
        0,
        0,
        0,
        0,
        0,
        0,
        0,
        0,
        0,
        0,
        0,
        1,
        1,
        0,
        0,
        0,
        0,
        0,
        0,
        0,
        0,
        0,
        1,
        0,
        0,
        0,
        1,
        1,
        0,
        0,
        0,
        0,
        0,
        0,
        0,
        0,
        0,
        0,
        0,
        0,
        0,
        1,
        1,
        0,
        0,
        0,
        0,
        0,
        0,
        0,
        0,
        0,
        0,
        0,
        0,
        0,
        1,
        1,
        0,
        0,
        0,
        0,
        0,
        0,
        1,
        0,
        0,
        0,
        0,
        0,
        0,
        1,
        1,
        1,
        1,
        1,
        1,
        1,
        1,
        1,
        1,
        1,
        1,
        1,
        1,
        1,
        1
      ],
      "opacity": 1,
      "visible": true,
      "x": 0,
      "y": 0
    },
    {
      "type": "tilelayer",
      "name": "decor",
      "width": 15,
      "height": 10,
      "data": [
        0,
        0,
        0,
        0,
        86,
        0,
        0,
        0,
        0,
        0,
        0,
        85,
        0,
        0,
        0,
        0,
        0,
        0,
        0,
        0,
        0,
        0,
        0,
        0,
        0,
        0,
        0,
        0,
        0,
        0,
        0,
        0,
        0,
        0,
        0,
        0,
        0,
        0,
        0,
        0,
        0,
        0,
        0,
        0,
        0,
        0,
        0,
        0,
        84,
        84,
        84,
        84,
        84,
        84,
        84,
        84,
        84,
        0,
        0,
        0,
        0,
        0,
        0,
        38,
        0,
        0,
        0,
        0,
        0,
        0,
        0,
        0,
        0,
        0,
        0,
        0,
        0,
        0,
        0,
        0,
        0,
        0,
        0,
        0,
        0,
        84,
        0,
        0,
        0,
        0,
        0,
        0,
        0,
        0,
        0,
        0,
        87,
        87,
        87,
        0,
        0,
        0,
        0,
        0,
        0,
        0,
        0,
        0,
        0,
        0,
        0,
        0,
        0,
        0,
        0,
        0,
        0,
        0,
        0,
        0,
        0,
        0,
        0,
        0,
        0,
        0,
        0,
        74,
        0,
        0,
        0,
        0,
        0,
        0,
        0,
        0,
        0,
        0,
        0,
        0,
        0,
        0,
        0,
        0,
        0,
        0,
        0,
        0,
        0,
        0
      ],
      "opacity": 1,
      "visible": true,
      "x": 0,
      "y": 0
    },
    {
      "type": "tilelayer",
      "name": "above",
      "width": 15,
      "height": 10,
      "data": [
        0,
        0,
        0,
        0,
        0,
        0,
        0,
        0,
        0,
        0,
        0,
        0,
        0,
        0,
        0,
        0,
        0,
        0,
        0,
        0,
        0,
        0,
        0,
        0,
        0,
        0,
        0,
        0,
        0,
        0,
        0,
        0,
        0,
        0,
        0,
        0,
        0,
        0,
        0,
        0,
        0,
        0,
        0,
        0,
        0,
        0,
        0,
        0,
        0,
        0,
        0,
        0,
        0,
        0,
        0,
        0,
        0,
        0,
        0,
        0,
        0,
        0,
        0,
        0,
        0,
        0,
        0,
        0,
        0,
        0,
        0,
        0,
        0,
        0,
        0,
        0,
        0,
        0,
        0,
        0,
        0,
        0,
        0,
        0,
        0,
        0,
        0,
        0,
        0,
        0,
        0,
        0,
        0,
        0,
        0,
        0,
        0,
        0,
        0,
        0,
        0,
        0,
        0,
        0,
        0,
        0,
        0,
        0,
        0,
        0,
        0,
        0,
        0,
        0,
        0,
        0,
        0,
        0,
        0,
        0,
        0,
        0,
        0,
        0,
        0,
        0,
        0,
        0,
        0,
        0,
        0,
        0,
        0,
        0,
        0,
        0,
        0,
        0,
        0,
        0,
        0,
        0,
        0,
        0,
        0,
        0,
        0,
        0,
        0,
        0
      ],
      "opacity": 1,
      "visible": true,
      "x": 0,
      "y": 0
    },
    {
      "type": "objectgroup",
      "name": "objects",
      "objects": [
        {
          "id": 1,
          "name": "interior-spawn",
          "class": "spawn",
          "x": 112,
          "y": 112,
          "properties": [
            {
              "name": "facing",
              "value": "up"
            }
          ]
        },
        {
          "id": 2,
          "name": "interior-exit",
          "class": "door",
          "x": 112,
          "y": 128,
          "properties": [
            {
              "name": "targetMapId",
              "value": "m1-town"
            },
            {
              "name": "targetDoorId",
              "value": "workshop-front"
            },
            {
              "name": "arrivalX",
              "value": 8
            },
            {
              "name": "arrivalY",
              "value": 15
            },
            {
              "name": "arrivalFacing",
              "value": "up"
            },
            {
              "name": "exitTile",
              "value": true
            },
            {
              "name": "exitTileX",
              "value": 7
            },
            {
              "name": "exitTileY",
              "value": 7
            }
          ]
        },
        {
          "id": 3,
          "name": "workshop-note",
          "class": "object",
          "x": 160,
          "y": 80,
          "properties": []
        },
        {
          "id": 4,
          "name": "interior-room",
          "class": "room",
          "x": 0,
          "y": 0,
          "properties": [],
          "width": 240,
          "height": 160
        }
      ]
    }
  ],
  "tilesets": [
    {
      "firstgid": 1,
      "name": "pokefolio-town",
      "tilewidth": 16,
      "tileheight": 16,
      "tilecount": 81,
      "columns": 16,
      "image": "../../public/assets/world/town-tiles.65e430cea1e0.png",
      "imagewidth": 256,
      "imageheight": 96
    }
  ],
  "properties": [
    {
      "name": "p9AuthoredMap",
      "value": true
    }
  ]
}
